X:1
T: The Gathering of the Gunns
C:
R:Jig
Q:180
K:C
M:6/8
L:1/16
G,2|G,4C2 C3B,C2|D3CD2 E4C2|C4F2 F3EF2|A3FA2 c4A2|G4c2 c3BA2|G3AF2 E4C2|D4A,2 D4C2|B,3CA,2 G,4G,2|
G,4C2 C3B,C2|D3CD2 E4C2|C4F2 F3EF2|A3FA2 c4A2|G3Ec2 G3EC2|D3CD2 E4C2|B,3CD2 A3GB,2|C6 C4E2|
E4A2 A4c2|B3A^G2 A4c2|B3A^G2 A3dc2|B3cB2 B4E2|E4A2 A4c2|B3A^G2 A4z2|E3AB2 c3BA2|e6 e4E2|
E4A2 A4c2|B3A^G2 A4c2|B3cd2 f3ed2|d3cB2 A3Bc2|d3cB2 c3BA2|B3cd2 e4z2|e3dc2 B3AB2|A6 A4||
